X:1
T:Title
%%score { ( 1 3 6 ) | ( 2 4 5 ) }
L:1/8
M:4/4
K:C
V:1 treble nm="Grand Piano"
V:3 treble 
V:6 treble 
V:2 bass 
V:4 bass 
V:5 bass 
V:1
 z8[Q:1/4=80] | [F,F]3 G AdcF | A6 z2 | c4 z4 |[M:3/4] [FA]6 |[M:1/4] z2 |[M:4/4] [F,F]3 G AdcF | %7
 A6 z2 | z4 E2 z2 |[M:3/4] C6 |[M:1/4] [Ec]2 |[M:4/4] z4 F2 z2 | %12
 [F,D]2- [F,-_B,D-]2 [F,B,D][K:treble]FF[^CG] | [CA]4[K:bass][K:treble] z4 |[M:3/4] [F,A,CF]6 |] %15
V:2
 z4 z2 C2 | z4 z[K:treble] .F3 | .C2 z2 z4 | C,-[C,-A,]C,-[C,E] C,4 |[M:3/4] z[K:treble] D CB, C2 | %5
[M:1/4] C2 |[M:4/4][K:bass] z4 z[K:treble] _B, z2 | .C2 z2 z4[K:bass] | z2 z G,- G,2 z2 | %9
[M:3/4] [C,E,G,]6 |[M:1/4] G, z |[M:4/4] z4 A,2 A,2 | _B,,2 B,,2 B,,DD[B,,F,] | %13
 [C,F,]C,C,C, C,3 F,, |[M:3/4] F,,6 |] %15
V:3
 x8 | [A,C]2 C2 z4 | z DCB, CCFA | EFGG [Ec]2 [G_B]2 |[M:3/4] x6 |[M:1/4] x2 | %6
[M:4/4] [A,C]2 C4 z2 | z DC_B, z AAA | [CEc]3 [CE] B,2- [B,D]2 |[M:3/4] x6 |[M:1/4] z _B, | %11
[M:4/4] c3 A z CCC | _B,2 z2 z4[K:treble] | z[K:bass] F,F,[K:treble][A,C] [_B,EG]3 [F,A,CF] | %14
[M:3/4] x6 |] %15
V:4
 x8 | z4 F,4[K:treble] | [F,F]6 z2 | .G,2 _B,2 G,2 C2- |[M:3/4] C[K:treble] z z2 z2 |[M:1/4] x2 | %6
[M:4/4][K:bass] z4 F,4[K:treble] | [F,F]6[K:bass] [^F,_E]2 | G,E, z2 z2 F,2 |[M:3/4] x6 | %10
[M:1/4] C,2 |[M:4/4] [F,A,F]3 C z F,F,F, | x8 | x8 |[M:3/4] x6 |] %15
V:5
 x8 | F,,2 A,,[C,E,] C[K:treble]_B, A,2 | x8 | x8 |[M:3/4] F,6[K:treble] |[M:1/4] x2 | %6
[M:4/4][K:bass] F,,2 A,,[C,E,] z[K:treble] .F- .[A,F]2 | x6[K:bass] x2 | z2 C,2 G,,4 |[M:3/4] x6 | %10
[M:1/4] x2 |[M:4/4] x8 | x8 | x8 |[M:3/4] x6 |] %15
V:6
 x8 | x8 | x8 | x8 |[M:3/4] x6 |[M:1/4] x2 |[M:4/4] x8 | z4 C4 | x8 |[M:3/4] x6 |[M:1/4] x2 | %11
[M:4/4] x8 | x5[K:treble] x3 | x[K:bass] x2[K:treble] x5 |[M:3/4] x6 |] %15

